images/hand_n.3bdf6dd1e54c45077a65211355ecf629.svg

<?xml version="1.0" encoding="UTF-8"?>
<svg xmlns="http://www.w3.org/2000/svg" viewBox="0 0 320 300"> <rect class="tooltip-horizontal-scroll-icon_card" x="480" width="200" height="200" rx="5" fill="#eee"/> <rect class="tooltip-horizontal-scroll-icon_card" y="0" width="200" height="200" rx="5" fill="#eee"/> <rect class="tooltip-horizontal-scroll-icon_card" x="240" width="200" height="200" rx="5" fill="#eee"/> <path class="tooltip-horizontal-scroll-icon_hand" d="M78.9579 285.7C78.9579 285.7 37.8579 212.5 20.5579 180.8C-2.44209 138.6 -6.2422 120.8 9.6579 112C19.5579 106.5 33.2579 108.8 41.6579 123.4L61.2579 154.6V32.3C61.2579 32.3 60.0579 0 83.0579 0C107.558 0 105.458 32.3 105.458 32.3V91.7C105.458 91.7 118.358 82.4 133.458 86.6C141.158 88.7 150.158 92.4 154.958 104.6C154.958 104.6 185.658 89.7 200.958 121.4C200.958 121.4 236.358 114.4 236.358 151.1C236.358 187.8 192.158 285.7 192.158 285.7H78.9579Z" fill="#bebebe"/> <style> .tooltip-horizontal-scroll-icon_hand { animation: tooltip-horizontal-scroll-icon_anim-scroll-hand 2s infinite } .tooltip-horizontal-scroll-icon_card { animation: tooltip-horizontal-scroll-icon_anim-scroll-card 2s infinite } @keyframes tooltip-horizontal-scroll-icon_anim-scroll-hand { 0% { transform: translateX(80px) scale(1); opacity: 0 } 10% { transform: translateX(80px) scale(1); opacity: 1 } 20%,60% { transform: translateX(175px) scale(.6); opacity: 1 } 80% { transform: translateX(5px) scale(.6); opacity: 1 } to { transform: translateX(5px) scale(.6); opacity: 0 } } @keyframes tooltip-horizontal-scroll-icon_anim-scroll-card { 0%,60% { transform: translateX(0) } 80%,to { transform: translateX(-240px) } } </style> </svg>

<svg xmlns="http://www.w3.org/2000/svg" viewBox="0 0 320 300"><rect class="tooltip-horizontal-scroll-icon_card" x="480" width="200" height="200" rx="5" fill="#eee"/><rect class="tooltip-horizontal-scroll-icon_card" width="200" height="200" rx="5" fill="#eee"/><rect class="tooltip-horizontal-scroll-icon_card" x="240" width="200" height="200" rx="5" fill="#eee"/><path d="M78.958 285.7s-41.1-73.2-58.4-104.9c-23-42.2-26.8-60-10.9-68.8 9.9-5.5 23.6-3.2 32 11.4l19.6 31.2V32.3S60.058 0 83.058 0c24.5 0 22.4 32.3 22.4 32.3v59.4s12.9-9.3 28-5.1c7.7 2.1 16.7 5.8 21.5 18 0 0 30.7-14.9 46 16.8 0 0 35.4-7 35.4 29.7s-44.2 134.6-44.2 134.6h-113.2z" fill="#bebebe" style="animation:tooltip-horizontal-scroll-icon_anim-scroll-hand 2s infinite"/><style>@keyframes tooltip-horizontal-scroll-icon_anim-scroll-hand{0%{transform:translateX(80px) scale(1);opacity:0}10%{transform:translateX(80px) scale(1);opacity:1}20%,60%{transform:translateX(175px) scale(.6);opacity:1}80%{transform:translateX(5px) scale(.6);opacity:1}}@keyframes tooltip-horizontal-scroll-icon_anim-scroll-card{0%,60%{transform:translateX(0)}80%{transform:translateX(-240px)}}.tooltip-horizontal-scroll-icon_card{animation:tooltip-horizontal-scroll-icon_anim-scroll-card 2s infinite}</style></svg>
